!!! OTL: Berkowitz442
!!! Chapter: 1
!!! Section: IV
!!! Page: 110
!!! Mode: 
!!! Encoder: DJB
**kern
*staff1
*I"Piano
=1-
*clefC3
*k[f#]
*e:
*M3/8
8r
8r
8B/
=2
8B\L
8c#\
8d#\J
=3
8.e\L
16f#\K
8g\J
=4
8a\L
8b\
8cc\J
=5
4d\
8b\
=6
8c\L
8a\
8g\J
=7
8.f#\L
16e\L
16d#\
16e\JJ
=8
8f#\L
8d#\
8B\J
=9
8r
8d\L
8e\J
=10
8.f#\L
16g\K
8a\J
=11
8b\L
8cc\
8dd\J
=12
8e\L
8cc\
8b\J
=13
!!linebreak:original
4a\
8b\
=14
16a\LL
16g\
16f#\
16e\
16d#\
16e\JJ
=15
8B\L
8a\
8d#\J
=16
4f#\
8g\
=17
8e\
4r
==
*-
